X:1
T:A Pint o Wine
M:4/4
L:1/8
K:C
 G| c3 d e2e-d|d-cc-G G3 G| A2 G2 c2B-c| A4 G2 z G| c2 c2c-ee-g| G2G-AA-GF-E|\
F-GA-B c3/2- d/2- cE| D4 C2 z G| E3 D E2 F2| G2G-A G2 z G| A2 G2 c2B-c|\
 A4 G2 G2| c2 c2c-ee-g| G2G-AA-GF-E|F-GA-B c3/2- d/2 cE| D4 C2||
